actions/symbolic/document-export-symbolic-rtl.svg

<?xml version="1.0" encoding="UTF-8" standalone="no"?>
<svg
   height="16"
   width="16"
   version="1.1"
   id="svg11"
   xmlns="http://www.w3.org/2000/svg"
   xmlns:svg="http://www.w3.org/2000/svg">
  <defs
     id="defs15" />
  <path
     id="rect322-5"
     style="fill:#555761;stroke:none;stroke-width:1;stroke-linecap:round;-inkscape-stroke:none;stop-color:#000000"
     d="m 12.000001,1.9999998 c 1.10799,0 2,0.8920099 2,2 V 12.09375 c 0,1.107991 -0.89201,2 -2,2 H 4.0000003 c -1.107991,0 -2,-0.892009 -2,-2 v -1.746094 c 0.348071,0.260666 0.665999,0.585529 1,0.878906 v 0.867188 c 0,0.553992 0.446009,1 1,1 h 8.0000007 c 0.553994,0 1,-0.446008 1,-1 V 3.9999998 c 0,-0.5539946 -0.446006,-1 -1,-1 H 4.0000003 c -0.553993,0 -1,0.4460068 -1,1 v 0.7832031 c -0.308865,0.2806797 -0.606009,0.5810324 -0.931641,0.7929688 -0.02145,0.022754 -0.04595,0.044214 -0.06836,0.066406 V 3.9999998 c 10e-7,-1.1079907 0.892011,-2 2.000001,-2 z M 4.4199223,5.035156 c 0.267,-0.013 0.556453,0.1878441 0.564453,0.4648438 v 1.5 h 3.5 c 0.261,0 0.5,0.2380003 0.5,0.5 v 1 c 0.003,0.03126 0.003,0.06249 0,0.09375 -0.05171,0.2352998 -0.2591,0.40395 -0.5,0.40625 h -3.5 V 10.5 c -0.012,0.369 -0.5245,0.605 -0.8125,0.375 l -3,-2.5000002 c -0.21183,-0.2051258 -0.21183,-0.5448742 0,-0.75 l 3,-2.5 c 0.07123,-0.05587 0.157547,-0.087244 0.248047,-0.089844 z" />
</svg>

<?xml version="1.0" encoding="UTF-8" standalone="no"?>
<svg
   height="16"
   width="16"
   version="1.1"
   id="svg11"
   sodipodi:docname="document-export-symbolic-rtl.svg"
   inkscape:version="1.2.2 (b0a8486541, 2022-12-01)"
   xmlns:inkscape="http://www.inkscape.org/namespaces/inkscape"
   xmlns:sodipodi="http://sodipodi.sourceforge.net/DTD/sodipodi-0.dtd"
   xmlns="http://www.w3.org/2000/svg"
   xmlns:svg="http://www.w3.org/2000/svg">
  <sodipodi:namedview
     id="namedview6531"
     pagecolor="#ffffff"
     bordercolor="#000000"
     borderopacity="0.25"
     inkscape:showpageshadow="2"
     inkscape:pageopacity="0.0"
     inkscape:pagecheckerboard="0"
     inkscape:deskcolor="#d1d1d1"
     showgrid="false"
     inkscape:zoom="35.532116"
     inkscape:cx="9.3014444"
     inkscape:cy="8.6400709"
     inkscape:window-width="1278"
     inkscape:window-height="1005"
     inkscape:window-x="375"
     inkscape:window-y="13"
     inkscape:window-maximized="0"
     inkscape:current-layer="svg11" />
  <defs
     id="defs15" />
  <path
     id="rect322"
     style="fill:#555761;stroke:none;stroke-width:1;stroke-linecap:round;-inkscape-stroke:none;stop-color:#000000"
     d="m 12,2 c 1.107989,0 2,0.892011 2,2 v 8 c 0,1.10799 -0.892011,2 -2,2 H 4 C 2.89201,14 2,13.10799 2,12 v -1.615234 l 1,0.83789 V 12 c 0,0.553991 0.44601,1 1,1 h 8 c 0.553994,0 1,-0.446009 1,-1 V 4 C 13,3.446006 12.553994,3 12,3 H 4 C 3.446008,3 3,3.4460074 3,4 V 4.7773438 L 2,5.6152344 V 4 C 2,2.8920104 2.892011,2 4,2 Z" />
  <path
     id="path944"
     style="fill:#555761;stroke:none;stroke-width:1;stroke-linecap:round;-inkscape-stroke:none;stop-color:#000000"
     d="M 4.429687,5.000633 C 4.697855,4.987122 4.990934,5.1913806 5,5.471265 v 1.5290656 h 3.5 c 0.2609994,0 0.5,0.237965 0.5,0.4999245 V 8.0001795 8.5001038 C 9,8.7620632 8.7609994,9.0000282 8.5,9.0000282 H 5 V 10.529094 C 4.98791,10.902273 4.471765,11.140547 4.181641,10.907943 L 1.160156,8.3790283 C 1.05346,8.2753041 1,8.1379404 1,8.0001795 1,7.8624183 1.05346,7.7250557 1.160156,7.6213306 L 4.181641,5.092416 C 4.254171,5.034265 4.340298,5.005137 4.429687,5.000633 Z"
     sodipodi:nodetypes="sccsscssccccsccs" />
</svg>
